epam-assets/icon-sources/18/social-thumb-up.svg

<svg width="18" height="18" viewBox="0 0 18 18" fill="none" xmlns="http://www.w3.org/2000/svg">
<g id="18/social-thumb-up">
<path id="icon" d="M13.5 15.75H6V6L11.25 0.75L12.1875 1.6875C12.275 1.775 12.347 1.89375 12.4035 2.04375C12.4595 2.19375 12.4875 2.3375 12.4875 2.475V2.7375L11.6625 6H15.75C16.15 6 16.5 6.15 16.8 6.45C17.1 6.75 17.25 7.1 17.25 7.5V9C17.25 9.0875 17.2405 9.18125 17.2215 9.28125C17.203 9.38125 17.175 9.475 17.1375 9.5625L14.8875 14.85C14.775 15.1 14.5875 15.3125 14.325 15.4875C14.0625 15.6625 13.7875 15.75 13.5 15.75ZM4.5 6V15.75H1.5V6H4.5Z" fill="#6C6F80"/>
</g>
</svg>

<svg xmlns="http://www.w3.org/2000/svg" width="18" height="18" fill="none" viewBox="0 0 18 18">
  <path fill="#6C6F80" d="M13.5 15.75H6V6L11.25.75l.938.938a.982.982 0 0 1 .215.356c.056.15.085.293.085.431v.262L11.663 6h4.087c.4 0 .75.15 1.05.45.3.3.45.65.45 1.05V9a1.511 1.511 0 0 1-.113.563l-2.25 5.287c-.112.25-.3.463-.562.638a1.465 1.465 0 0 1-.825.262ZM4.5 6v9.75h-3V6h3Z"/>
</svg>
